build/svg/cmd/lc_slidechangewindow.svg

<?xml version="1.0" encoding="UTF-8" standalone="no"?>
<svg
   xmlns:dc="http://purl.org/dc/elements/1.1/"
   xmlns:cc="http://creativecommons.org/ns#"
   xmlns:rdf="http://www.w3.org/1999/02/22-rdf-syntax-ns#"
   xmlns:svg="http://www.w3.org/2000/svg"
   xmlns="http://www.w3.org/2000/svg"
   xmlns:sodipodi="http://sodipodi.sourceforge.net/DTD/sodipodi-0.dtd"
   xmlns:inkscape="http://www.inkscape.org/namespaces/inkscape"
   viewBox="0 0 24 24"
   version="1.1"
   id="svg4"
   sodipodi:docname="lc_slidechangewindow.svg"
   inkscape:export-filename="/home/jupiter007/Libreoffice yaru theme fullcolor/build/cmd/lc_slidechangewindow.png"
   inkscape:export-xdpi="96"
   inkscape:export-ydpi="96"
   inkscape:version="0.92.5 (2060ec1f9f, 2020-04-08)">
  <metadata
     id="metadata10">
    <rdf:RDF>
      <cc:Work
         rdf:about="">
        <dc:format>image/svg+xml</dc:format>
        <dc:type
           rdf:resource="http://purl.org/dc/dcmitype/StillImage" />
      </cc:Work>
    </rdf:RDF>
  </metadata>
  <defs
     id="defs8" />
  <sodipodi:namedview
     pagecolor="#ffffff"
     bordercolor="#666666"
     borderopacity="1"
     objecttolerance="10"
     gridtolerance="10"
     guidetolerance="10"
     inkscape:pageopacity="0"
     inkscape:pageshadow="2"
     inkscape:window-width="1920"
     inkscape:window-height="1011"
     id="namedview6"
     showgrid="true"
     inkscape:zoom="27.812867"
     inkscape:cx="12.267148"
     inkscape:cy="9.7232189"
     inkscape:window-x="0"
     inkscape:window-y="32"
     inkscape:window-maximized="1"
     inkscape:current-layer="svg4">
    <inkscape:grid
       type="xygrid"
       id="grid841" />
  </sodipodi:namedview>
  <path
     id="path826"
     d="M 2.0000001,6.0000619 V 18.000062 c 0,1.662 1.338,3 3,3 H 19 c 1.662,0 3,-1.338 3,-3 V 6.0000619 Z"
     style="opacity:0.6;fill:#000000;fill-opacity:1;fill-rule:evenodd;stroke:#000000;stroke-width:2;stroke-linecap:butt;stroke-linejoin:round;stroke-miterlimit:4;stroke-dasharray:none;stroke-opacity:1"
     inkscape:connector-curvature="0"
     sodipodi:nodetypes="csssscc" />
  <rect
     style="opacity:1;fill:#6d6d6d;fill-opacity:1;fill-rule:evenodd;stroke:none;stroke-width:2;stroke-linecap:butt;stroke-linejoin:round;stroke-miterlimit:4;stroke-dasharray:none;stroke-opacity:1"
     id="rect819"
     width="24"
     height="3"
     x="0"
     y="3.000062" />
  <path
     style="opacity:1;fill:#ffffff;fill-opacity:1;fill-rule:evenodd;stroke:none;stroke-width:2;stroke-linecap:butt;stroke-linejoin:round;stroke-miterlimit:4;stroke-dasharray:none;stroke-opacity:1"
     d="M 2.0000001,6.0000619 V 18.000062 c 0,1.662 1.338,3 3,3 H 19 c 1.662,0 3,-1.338 3,-3 V 6.0000619 Z"
     id="rect821"
     inkscape:connector-curvature="0"
     sodipodi:nodetypes="csssscc" />
  <rect
     style="opacity:1;fill:#1a7fd4;fill-opacity:1;fill-rule:evenodd;stroke:none;stroke-width:3.65148377;stroke-linecap:butt;stroke-linejoin:round;stroke-miterlimit:4;stroke-dasharray:none;stroke-opacity:1"
     id="rect830"
     width="5"
     height="2"
     x="4"
     y="9.000062" />
  <rect
     style="opacity:1;fill:#c7162b;fill-opacity:1;fill-rule:evenodd;stroke:none;stroke-width:3.65148354;stroke-linecap:butt;stroke-linejoin:round;stroke-miterlimit:4;stroke-dasharray:none;stroke-opacity:1"
     id="rect832"
     width="5"
     height="2"
     x="4"
     y="12.000062" />
  <rect
     style="opacity:1;fill:#46a926;fill-opacity:1;fill-rule:evenodd;stroke:none;stroke-width:3.65148354;stroke-linecap:butt;stroke-linejoin:round;stroke-miterlimit:4;stroke-dasharray:none;stroke-opacity:1"
     id="rect834"
     width="5"
     height="2"
     x="4"
     y="15.000062" />
  <path
     style="opacity:1;fill:#46a926;fill-opacity:1;fill-rule:evenodd;stroke:none;stroke-width:2;stroke-linecap:butt;stroke-linejoin:round;stroke-miterlimit:4;stroke-dasharray:none;stroke-opacity:1"
     id="path820"
     sodipodi:type="arc"
     sodipodi:cx="15.5"
     sodipodi:cy="13.500062"
     sodipodi:rx="4.5"
     sodipodi:ry="4.5"
     sodipodi:start="0"
     sodipodi:end="4.712389"
     d="M 20,13.500062 A 4.5,4.5 0 0 1 17.222075,17.65752 4.5,4.5 0 0 1 12.318019,16.682042 4.5,4.5 0 0 1 11.342542,11.777986 4.5,4.5 0 0 1 15.5,9.000062 l 0,4.5 z" />
  <path
     d="m 9.000062,-15.5 a 4.5,4.5 0 0 1 4.5,-4.5 l 0,4.5 z"
     sodipodi:end="4.712389"
     sodipodi:start="3.1415927"
     sodipodi:ry="4.5"
     sodipodi:rx="4.5"
     sodipodi:cy="-15.5"
     sodipodi:cx="13.500062"
     sodipodi:type="arc"
     id="path822"
     style="opacity:1;fill:#c7162b;fill-opacity:1;fill-rule:evenodd;stroke:none;stroke-width:2;stroke-linecap:butt;stroke-linejoin:round;stroke-miterlimit:4;stroke-dasharray:none;stroke-opacity:1"
     transform="rotate(90)" />
  <path
     style="opacity:0.6;fill:#000000;fill-opacity:1;stroke:#000000;stroke-width:2;stroke-linecap:butt;stroke-linejoin:round;stroke-miterlimit:4;stroke-dasharray:none;stroke-opacity:1"
     d="M 16 16 L 16 23 L 22 20 L 22 23 L 23 23 L 23 19.5 L 23 16 L 22 16 L 22 19 L 16 16 z "
     id="path827" />
  <path
     style="fill:#aee3f8;fill-opacity:1;stroke:none;stroke-width:1px;stroke-linecap:butt;stroke-linejoin:miter;stroke-opacity:1"
     d="M 16 16 L 16 23 L 22 20 L 22 23 L 23 23 L 23 19.5 L 23 16 L 22 16 L 22 19 L 16 16 z "
     id="path824" />
</svg>

<svg xmlns="http://www.w3.org/2000/svg" viewBox="0 0 24 24"><path d="M2 6v12c0 1.662 1.338 3 3 3h14c1.662 0 3-1.338 3-3V6z" opacity=".6" fill-rule="evenodd" stroke="#000" stroke-width="2" stroke-linejoin="round"/><path fill="#6d6d6d" fill-rule="evenodd" d="M0 3h24v3H0z"/><path d="M2 6v12c0 1.662 1.338 3 3 3h14c1.662 0 3-1.338 3-3V6z" fill="#fff" fill-rule="evenodd"/><path fill="#1a7fd4" fill-rule="evenodd" d="M4 9h5v2H4z"/><path fill="#c7162b" fill-rule="evenodd" d="M4 12h5v2H4z"/><path fill="#46a926" fill-rule="evenodd" d="M4 15h5v2H4zM20 13.5a4.5 4.5 0 01-2.778 4.158 4.5 4.5 0 01-4.904-.976 4.5 4.5 0 01-.975-4.904A4.5 4.5 0 0115.5 9v4.5z"/><path d="M15.5 9a4.5 4.5 0 014.5 4.5h-4.5z" fill="#c7162b" fill-rule="evenodd"/><path d="M16 16v7l6-3v3h1v-7h-1v3l-6-3z" opacity=".6" stroke="#000" stroke-width="2" stroke-linejoin="round"/><path d="M16 16v7l6-3v3h1v-7h-1v3l-6-3z" fill="#aee3f8"/></svg>
